X:1
T:My Boy Willy
M:6/8
L:1/4
K:G
 D/2| G G/2 G G/2| F E/2 D3/2| G3/2 A3/2| B/2 d- d d/2| G G/2 G G/2|\
 F E/2 D d/2| d e/2 d c/2| B c/2 d3/2| c3/2 c3/2| B B/2 B3/2| A B/2 c A/2|\
 G F/2 D3/2| G A/2 B G/2| E3/2 A A/2| G G/2 F F/2| G/2 G- G||
